X:6
T:While Happy in my Native Land
N:page 12 on manuscript
M:C
L:1/8
K:F
c2 | c>BA>B c2 c2 | c4 z2 f2 | d3 d c2 B2 | (B2 A2) z2 A2 | G>GA>=B c2 d2 | e4 z2 f2 | g2 c2 (ce)d=B |
c3 d c2 c2 | G>AB>A G2 d2 | c2 B2 A2 B2 | c2 d2 c2 fA | A2 G2 z2 C2 | F3 G A2 c2 | B3 A G2 C2 | G3 A B2 dB |
(B2 A2) z2 c2 | f2 f2 f2 c2 | f2 f2 f2 A2 | B3 c d2 e2 | f3 g a2 f2 | d2 B2 G2 e2 | f3 g f2 ||

